src/img/HomePage/Crystals/UpRight4.svg

<?xml version="1.0" encoding="UTF-8"?> <svg xmlns="http://www.w3.org/2000/svg" width="85" height="134" viewBox="0 0 85 134" fill="none"> <path fill-rule="evenodd" clip-rule="evenodd" d="M76.6367 7.88334C68.3809 16.5833 64.3921 19.712 53.9924 25.6445C49.5505 28.1779 46.8082 30.495 45.3418 32.9526C40.5896 40.9142 28.3524 58.5608 21.2976 67.6243C15.6508 74.8796 13.4612 78.5157 12.3658 82.4604C11.5674 85.3337 10.144 89.8469 9.20354 92.4885C7.25644 97.9561 8.01658 99.4462 11.0734 96.1536C12.2199 94.9193 20.6481 87.2229 29.8038 79.0514C48.4511 62.4077 56.765 54.8415 59.944 51.6222C61.1282 50.4223 66.084 42.9739 70.9558 35.0703C78.5961 22.676 79.924 19.9304 80.6097 15.1024C81.0472 12.0236 82.2232 7.46833 83.2227 4.97974C84.2222 2.49022 84.8967 0.28437 84.7206 0.077251C84.5454 -0.129791 80.9076 3.38285 76.6367 7.88334ZM78.314 8.01636C71.6831 15.3857 60.8846 23.8838 54.8275 26.5008C50.2575 28.4742 48.716 29.7438 46.6286 33.2487C39.672 44.933 26.4551 63.8022 20.8188 70.0974C16.9668 74.4003 15.2214 77.758 13.0591 85.0304C11.8539 89.084 10.4562 93.1745 9.95388 94.1194C9.04738 95.8256 36.8522 72.0158 44.5354 64.507C46.7392 62.353 51.5221 57.9411 55.1636 54.7034C58.806 51.4649 62.3886 47.5135 63.1244 45.9225C63.8612 44.3306 67.6848 37.8402 71.6225 31.4979C77.1283 22.6311 78.8583 19.0476 79.1115 15.9847C79.2926 13.7947 80.1942 10.0851 81.1146 7.74291C82.035 5.40071 82.706 3.47679 82.6049 3.46843C82.5029 3.46 80.5728 5.50635 78.314 8.01636ZM78.062 10.141C77.7101 10.8737 77.5571 12.0286 77.7234 12.7088C77.8896 13.3889 78.3434 12.8035 78.7322 11.4075C79.491 8.68285 79.1102 7.96325 78.062 10.141ZM75.5812 17.7544C75.0712 19.6595 73.7281 22.7341 72.5974 24.587C70.0402 28.7799 70.5987 29.0592 73.4555 25.0157C75.4969 22.1252 78.0655 14.4201 77.0169 14.3334C76.7379 14.3103 76.0912 15.8502 75.5812 17.7544ZM65.7227 34.8245C63.4863 38.1708 60.9665 41.808 60.1244 42.906C59.2824 44.004 58.8247 44.9223 59.1065 44.9456C59.9182 45.0127 70.6787 29.7907 70.2107 29.2376C69.9788 28.9645 67.9601 31.4783 65.7227 34.8245ZM54.1665 49.9354L52.3068 52.4067L54.6465 50.5027C55.9331 49.4556 56.7697 48.343 56.506 48.0315C56.2415 47.7189 55.1895 48.5758 54.1665 49.9354ZM48.3654 55.6346C43.4985 59.2949 35.6256 66.8192 37.3493 66.1631C38.7274 65.639 53.166 52.9374 52.4232 52.9024C52.2035 52.8918 50.3768 54.1217 48.3654 55.6346ZM30.686 71.5287C28.4326 73.7003 26.0599 75.9582 25.4137 76.5457C22.4946 79.1984 14.0594 88.0836 13.3067 89.2985C12.3864 90.7836 14.6424 88.6953 22.3122 80.9607C25.1094 78.1403 29.4666 73.9858 31.9957 71.7294C34.5247 69.473 36.1865 67.6159 35.688 67.603C35.1903 67.5911 32.9393 69.3571 30.686 71.5287ZM54.3193 110.624C54.2767 111.139 54.6631 111.596 55.1781 111.639C55.693 111.681 56.1491 111.294 56.1918 110.778C56.2344 110.263 55.848 109.806 55.3331 109.764C54.8181 109.721 54.3619 110.108 54.3193 110.624ZM28.1848 113.182C27.8239 113.672 27.9753 114.109 28.5202 114.154C29.0651 114.199 29.5464 113.814 29.5891 113.299C29.6317 112.783 29.4813 112.346 29.2538 112.327C29.0263 112.308 28.5458 112.693 28.1848 113.182ZM29.0287 121.389C27.7491 121.906 26.2984 122.864 25.8031 123.52C23.1768 126.997 26.0712 132.83 30.6092 133.205C35.4834 133.608 46.4063 127.492 45.1665 125.055C44.8567 124.446 44.2248 124.141 43.7613 124.378C42.7338 124.901 38.2549 122.501 38.34 121.471C38.431 120.371 31.6988 120.311 29.0287 121.389ZM1.41748 122.825C-0.666549 124.955 0.838134 129.034 4.15133 130.234C6.22068 130.984 7.49322 130.86 9.31845 129.728C12.9759 127.46 12.9093 126.496 8.92189 123.977C4.56889 121.227 3.18945 121.015 1.41748 122.825Z" fill="#FA007A"></path> </svg>

<svg xmlns="http://www.w3.org/2000/svg" width="85" height="134" fill="none"><path fill-rule="evenodd" clip-rule="evenodd" d="M76.637 7.883c-8.256 8.7-12.245 11.829-22.645 17.761-4.441 2.534-7.184 4.851-8.65 7.309-4.752 7.961-16.99 25.608-24.044 34.671-5.647 7.256-7.837 10.892-8.932 14.836-.799 2.874-2.222 7.387-3.162 10.029-1.948 5.467-1.187 6.957 1.87 3.665 1.146-1.235 9.574-8.931 18.73-17.103 18.647-16.643 26.961-24.21 30.14-27.429 1.184-1.2 6.14-8.648 11.012-16.552 7.64-12.394 8.968-15.14 9.654-19.968.437-3.078 1.613-7.634 2.613-10.122 1-2.49 1.674-4.696 1.498-4.903-.176-.207-3.813 3.306-8.084 7.806Zm1.677.133c-6.63 7.37-17.43 15.868-23.486 18.485-4.57 1.973-6.112 3.243-8.2 6.748-6.956 11.684-20.173 30.553-25.81 36.848-3.851 4.303-5.597 7.661-7.759 14.933-1.205 4.054-2.603 8.144-3.105 9.09-.907 1.706 26.898-22.104 34.581-29.613 2.204-2.154 6.987-6.566 10.629-9.804 3.642-3.238 7.225-7.19 7.96-8.78.737-1.592 4.56-8.083 8.498-14.425 5.506-8.867 7.236-12.45 7.49-15.513.18-2.19 1.082-5.9 2.003-8.242.92-2.342 1.591-4.266 1.49-4.275-.102-.008-2.032 2.038-4.291 4.548Zm-.252 2.125c-.352.733-.505 1.888-.339 2.568.167.68.62.095 1.01-1.301.758-2.725.377-3.445-.671-1.267Zm-2.48 7.613c-.51 1.905-1.854 4.98-2.985 6.833-2.557 4.193-1.998 4.472.859.429 2.04-2.89 4.61-10.596 3.56-10.683-.278-.023-.925 1.517-1.435 3.421Zm-9.86 17.07c-2.236 3.347-4.755 6.984-5.598 8.082-.842 1.098-1.3 2.016-1.018 2.04.812.067 11.573-15.155 11.105-15.708-.232-.273-2.25 2.24-4.488 5.587ZM54.168 49.936l-1.86 2.472 2.34-1.904c1.286-1.047 2.123-2.16 1.859-2.471-.264-.313-1.316.544-2.34 1.903Zm-5.802 5.7c-4.867 3.66-12.74 11.184-11.016 10.528 1.378-.524 15.817-13.226 15.074-13.26-.22-.011-2.046 1.219-4.058 2.732ZM30.686 71.529c-2.253 2.171-4.626 4.43-5.272 5.017-2.92 2.652-11.355 11.538-12.107 12.752-.92 1.486 1.335-.603 9.005-8.337 2.797-2.82 7.155-6.975 9.684-9.232 2.529-2.256 4.19-4.113 3.692-4.126-.498-.012-2.749 1.754-5.002 3.926Zm23.633 39.095a.944.944 0 0 0 .86 1.015.944.944 0 0 0 1.013-.861.942.942 0 0 0-.859-1.014.942.942 0 0 0-1.014.86Zm-26.134 2.558c-.361.49-.21.927.335.972.545.045 1.026-.34 1.07-.855.042-.516-.109-.953-.336-.972-.228-.019-.708.366-1.07.855Zm.844 8.207c-1.28.517-2.73 1.475-3.226 2.131-2.626 3.477.268 9.31 4.806 9.685 4.874.403 15.797-5.713 14.557-8.15-.31-.609-.941-.914-1.405-.677-1.027.523-5.506-1.877-5.421-2.907.091-1.1-6.641-1.16-9.311-.082Zm-27.612 1.436c-2.084 2.13-.579 6.209 2.734 7.409 2.07.75 3.342.626 5.167-.506 3.658-2.268 3.591-3.232-.396-5.751-4.353-2.75-5.733-2.962-7.505-1.152Z" fill="#FA007A"/></svg>
